X:27
T:Four Shoves, The
R:polka
Z:id:hn-polka-27
M:2/4
L:1/8
K:Edor
EB B/A/B|EB A2|EB B/A/B/c/|d2 A2|EB B/A/B|EB A2|EB B/A/B/c/|d2 A2:|
|:df ef/e/|df f>e|df ef/e/|dB BA|d2 ef/e/|df fe|fg/f/ ef/e/|d2 d2:|
<end>
<start>
